X: 25350
T: Máolisse
R: strathspey
M: 4/4
K: Edorian
D|:E>B A>G F<A D>F|E>B A>d B<A F>D|
E>B A>G F<A B>c|1 d<B A>F F<E F>D:|2 d<B A>F F<E (3FGA||
B<e f>g f<d B>A|B<e d>e f2 (3gfd|
B<e f>g f<d B>=c|1 B<A F>D F<E (3FGA:|2 B<A F>d F<E E2||

